src/svg/arrows/top-out.svg

<svg xmlns="http://www.w3.org/2000/svg" viewBox="0 0 24 24">
  <path fill="none" d="M14 14.123l-.986 3.994-3.985-.96"/>
  <path d="M2.5 21c-.276 0-.5.225-.5.5 0 .277.224.5.5.5s.5-.223.5-.5c0-.275-.224-.5-.5-.5zM2.5 19c-.276 0-.5.225-.5.5 0 .277.224.5.5.5s.5-.223.5-.5c0-.275-.224-.5-.5-.5zM2.5 17c-.276 0-.5.225-.5.5 0 .277.224.5.5.5s.5-.223.5-.5c0-.275-.224-.5-.5-.5zM2.5 15c-.276 0-.5.225-.5.5 0 .277.224.5.5.5s.5-.223.5-.5c0-.275-.224-.5-.5-.5zM22.5 21c-.276 0-.5.225-.5.5 0 .277.224.5.5.5s.5-.223.5-.5c0-.275-.224-.5-.5-.5zM22.5 19c-.276 0-.5.225-.5.5 0 .277.224.5.5.5s.5-.223.5-.5c0-.275-.224-.5-.5-.5zM22.5 17c-.276 0-.5.225-.5.5 0 .277.224.5.5.5s.5-.223.5-.5c0-.275-.224-.5-.5-.5zM22.5 15c-.276 0-.5.225-.5.5 0 .277.224.5.5.5s.5-.223.5-.5c0-.275-.224-.5-.5-.5zM2.5 13c-.276 0-.5.225-.5.5 0 .277.224.5.5.5s.5-.223.5-.5c0-.275-.224-.5-.5-.5zM22.5 13c-.276 0-.5.225-.5.5 0 .277.224.5.5.5s.5-.223.5-.5c0-.275-.224-.5-.5-.5zM2.5 23c-.276 0-.5.225-.5.5 0 .277.224.5.5.5s.5-.223.5-.5c0-.275-.224-.5-.5-.5zM4.5 23c-.276 0-.5.225-.5.5 0 .277.224.5.5.5s.5-.223.5-.5c0-.275-.224-.5-.5-.5zM6.5 23c-.276 0-.5.225-.5.5 0 .277.224.5.5.5s.5-.223.5-.5c0-.275-.224-.5-.5-.5zM8.5 23c-.276 0-.5.225-.5.5 0 .277.224.5.5.5s.5-.223.5-.5c0-.275-.224-.5-.5-.5zM10.5 23c-.276 0-.5.225-.5.5 0 .277.224.5.5.5s.5-.223.5-.5c0-.275-.224-.5-.5-.5zM12.5 23c-.276 0-.5.225-.5.5 0 .277.224.5.5.5s.5-.223.5-.5c0-.275-.224-.5-.5-.5zM14.5 23c-.276 0-.5.225-.5.5 0 .277.224.5.5.5s.5-.223.5-.5c0-.275-.224-.5-.5-.5zM16.5 23c-.276 0-.5.225-.5.5 0 .277.224.5.5.5s.5-.223.5-.5c0-.275-.224-.5-.5-.5zM18.5 23c-.276 0-.5.225-.5.5 0 .277.224.5.5.5s.5-.223.5-.5c0-.275-.224-.5-.5-.5zM20.5 23c-.276 0-.5.225-.5.5 0 .277.224.5.5.5s.5-.223.5-.5c0-.275-.224-.5-.5-.5zM22.5 23c-.276 0-.5.225-.5.5 0 .277.224.5.5.5s.5-.223.5-.5c0-.275-.224-.5-.5-.5z"/>
  <path fill="none" d="M22.5 9.5v-9h-20v9M13.5 11.5h10M.5 11.5h7"/>
  <path fill="none" d="M13.003 18.117c-1.558-1.762-2.503-4.08-2.503-6.617 0-2.514.928-4.81 2.46-6.568"/>
</svg>

<?xml version="1.0" encoding="utf-8"?>
<!-- Generator: Adobe Illustrator 16.0.3, SVG Export Plug-In . SVG Version: 6.00 Build 0)  -->
<!DOCTYPE svg PUBLIC "-//W3C//DTD SVG 1.1//EN" "http://www.w3.org/Graphics/SVG/1.1/DTD/svg11.dtd">
<svg version="1.1" xmlns="http://www.w3.org/2000/svg" xmlns:xlink="http://www.w3.org/1999/xlink" x="0px" y="0px" width="24px"
	 height="24px" viewBox="0 0 24 24" enable-background="new 0 0 24 24" xml:space="preserve">
<g id="Outline_Icons_1_">
	<g id="Outline_Icons">
		<g>
			<polyline fill="none" stroke-miterlimit="10" points="
				14,14.123 13.014,18.117 9.029,17.156 			"/>
			<g>
				<g>
					<g>
						<g>
							<path d="M2.5,21C2.224,21,2,21.225,2,21.5C2,21.777,2.224,22,2.5,22S3,21.777,3,21.5C3,21.225,2.776,21,2.5,21L2.5,21z"/>
						</g>
					</g>
				</g>
			</g>
			<g>
				<g>
					<g>
						<g>
							<path d="M2.5,19C2.224,19,2,19.225,2,19.5C2,19.777,2.224,20,2.5,20S3,19.777,3,19.5C3,19.225,2.776,19,2.5,19L2.5,19z"/>
						</g>
					</g>
				</g>
			</g>
			<g>
				<g>
					<g>
						<g>
							<path d="M2.5,17C2.224,17,2,17.225,2,17.5C2,17.777,2.224,18,2.5,18S3,17.777,3,17.5C3,17.225,2.776,17,2.5,17L2.5,17z"/>
						</g>
					</g>
				</g>
			</g>
			<g>
				<g>
					<g>
						<g>
							<path d="M2.5,15C2.224,15,2,15.225,2,15.5C2,15.777,2.224,16,2.5,16S3,15.777,3,15.5C3,15.225,2.776,15,2.5,15L2.5,15z"/>
						</g>
					</g>
				</g>
			</g>
			<g>
				<g>
					<g>
						<g>
							<path d="M22.5,21c-0.276,0-0.5,0.225-0.5,0.5c0,0.277,0.224,0.5,0.5,0.5s0.5-0.223,0.5-0.5C23,21.225,22.776,21,22.5,21
								L22.5,21z"/>
						</g>
					</g>
				</g>
			</g>
			<g>
				<g>
					<g>
						<g>
							<path d="M22.5,19c-0.276,0-0.5,0.225-0.5,0.5c0,0.277,0.224,0.5,0.5,0.5s0.5-0.223,0.5-0.5C23,19.225,22.776,19,22.5,19
								L22.5,19z"/>
						</g>
					</g>
				</g>
			</g>
			<g>
				<g>
					<g>
						<g>
							<path d="M22.5,17c-0.276,0-0.5,0.225-0.5,0.5c0,0.277,0.224,0.5,0.5,0.5s0.5-0.223,0.5-0.5C23,17.225,22.776,17,22.5,17
								L22.5,17z"/>
						</g>
					</g>
				</g>
			</g>
			<g>
				<g>
					<g>
						<g>
							<path d="M22.5,15c-0.276,0-0.5,0.225-0.5,0.5c0,0.277,0.224,0.5,0.5,0.5s0.5-0.223,0.5-0.5C23,15.225,22.776,15,22.5,15
								L22.5,15z"/>
						</g>
					</g>
				</g>
			</g>
			<g>
				<g>
					<g>
						<g>
							<path d="M2.5,13C2.224,13,2,13.225,2,13.5C2,13.777,2.224,14,2.5,14S3,13.777,3,13.5C3,13.225,2.776,13,2.5,13L2.5,13z"/>
						</g>
					</g>
				</g>
			</g>
			<g>
				<g>
					<g>
						<g>
							<path d="M22.5,13c-0.276,0-0.5,0.225-0.5,0.5c0,0.277,0.224,0.5,0.5,0.5s0.5-0.223,0.5-0.5C23,13.225,22.776,13,22.5,13
								L22.5,13z"/>
						</g>
					</g>
				</g>
			</g>
			<g>
				<g>
					<g>
						<g>
							<path d="M2.5,23C2.224,23,2,23.225,2,23.5C2,23.777,2.224,24,2.5,24S3,23.777,3,23.5C3,23.225,2.776,23,2.5,23L2.5,23z"/>
						</g>
					</g>
				</g>
			</g>
			<g>
				<g>
					<g>
						<g>
							<path d="M4.5,23C4.224,23,4,23.225,4,23.5C4,23.777,4.224,24,4.5,24S5,23.777,5,23.5C5,23.225,4.776,23,4.5,23L4.5,23z"/>
						</g>
					</g>
				</g>
			</g>
			<g>
				<g>
					<g>
						<g>
							<path d="M6.5,23C6.224,23,6,23.225,6,23.5C6,23.777,6.224,24,6.5,24S7,23.777,7,23.5C7,23.225,6.776,23,6.5,23L6.5,23z"/>
						</g>
					</g>
				</g>
			</g>
			<g>
				<g>
					<g>
						<g>
							<path d="M8.5,23C8.224,23,8,23.225,8,23.5C8,23.777,8.224,24,8.5,24S9,23.777,9,23.5C9,23.225,8.776,23,8.5,23L8.5,23z"/>
						</g>
					</g>
				</g>
			</g>
			<g>
				<g>
					<g>
						<g>
							<path d="M10.5,23c-0.276,0-0.5,0.225-0.5,0.5c0,0.277,0.224,0.5,0.5,0.5s0.5-0.223,0.5-0.5C11,23.225,10.776,23,10.5,23
								L10.5,23z"/>
						</g>
					</g>
				</g>
			</g>
			<g>
				<g>
					<g>
						<g>
							<path d="M12.5,23c-0.276,0-0.5,0.225-0.5,0.5c0,0.277,0.224,0.5,0.5,0.5s0.5-0.223,0.5-0.5C13,23.225,12.776,23,12.5,23
								L12.5,23z"/>
						</g>
					</g>
				</g>
			</g>
			<g>
				<g>
					<g>
						<g>
							<path d="M14.5,23c-0.276,0-0.5,0.225-0.5,0.5c0,0.277,0.224,0.5,0.5,0.5s0.5-0.223,0.5-0.5C15,23.225,14.776,23,14.5,23
								L14.5,23z"/>
						</g>
					</g>
				</g>
			</g>
			<g>
				<g>
					<g>
						<g>
							<path d="M16.5,23c-0.276,0-0.5,0.225-0.5,0.5c0,0.277,0.224,0.5,0.5,0.5s0.5-0.223,0.5-0.5C17,23.225,16.776,23,16.5,23
								L16.5,23z"/>
						</g>
					</g>
				</g>
			</g>
			<g>
				<g>
					<g>
						<g>
							<path d="M18.5,23c-0.276,0-0.5,0.225-0.5,0.5c0,0.277,0.224,0.5,0.5,0.5s0.5-0.223,0.5-0.5C19,23.225,18.776,23,18.5,23
								L18.5,23z"/>
						</g>
					</g>
				</g>
			</g>
			<g>
				<g>
					<g>
						<g>
							<path d="M20.5,23c-0.276,0-0.5,0.225-0.5,0.5c0,0.277,0.224,0.5,0.5,0.5s0.5-0.223,0.5-0.5C21,23.225,20.776,23,20.5,23
								L20.5,23z"/>
						</g>
					</g>
				</g>
			</g>
			<g>
				<g>
					<g>
						<g>
							<path d="M22.5,23c-0.276,0-0.5,0.225-0.5,0.5c0,0.277,0.224,0.5,0.5,0.5s0.5-0.223,0.5-0.5C23,23.225,22.776,23,22.5,23
								L22.5,23z"/>
						</g>
					</g>
				</g>
			</g>
			<polyline fill="none"  stroke-linecap="round" stroke-linejoin="round" stroke-miterlimit="10" points="
				22.5,9.5 22.5,0.5 2.5,0.5 2.5,9.5 			"/>

				<line fill="none"  stroke-linecap="round" stroke-linejoin="round" stroke-miterlimit="10" x1="13.5" y1="11.5" x2="23.5" y2="11.5"/>

				<line fill="none"  stroke-linecap="round" stroke-linejoin="round" stroke-miterlimit="10" x1="0.5" y1="11.5" x2="7.5" y2="11.5"/>
			<path fill="none"  stroke-linecap="round" stroke-linejoin="round" stroke-miterlimit="10" d="M13.003,18.117
				c-1.558-1.762-2.503-4.08-2.503-6.617c0-2.514,0.928-4.81,2.459-6.568"/>
		</g>
	</g>
</g>
</svg>
